src/assets/img/providers-white/fantasma.svg

<svg width="114" height="22" viewBox="0 0 114 22" fill="none" xmlns="http://www.w3.org/2000/svg">
<g clip-path="url(#clip0_4416_8247)">
<path fill-rule="evenodd" clip-rule="evenodd" d="M8.36892 0.83388C6.34718 1.34345 4.4913 3.96074 4.47525 6.32475C4.46931 7.32772 4.30167 7.52886 2.98674 8.11516C0.00138998 9.44506 0.0406244 10.9138 3.11276 12.7749C5.5411 14.2467 5.61541 14.2246 5.38001 12.1138C5.18265 10.3378 5.18562 10.3295 5.70815 11.3072C6.55287 12.8887 6.21283 16.8639 5.15946 17.7238C3.87901 18.7676 2.35067 18.4495 1.90008 17.0448C1.57669 16.0371 1.48574 15.9729 1.0821 16.4628C-0.185269 18.0011 3.31844 21.1021 6.43517 21.201C8.48722 21.2669 9.73796 20.4777 10.594 18.5784C11.2181 17.1933 11.2366 17.182 11.2324 18.1777C11.2294 18.7418 11.0095 19.5873 10.7426 20.0568C9.96206 21.4327 10.1047 21.5309 12.5236 21.2836C15.4216 20.9866 18.0205 19.8076 19.0834 18.307C20.3674 16.4934 20.2782 12.5258 18.9133 10.7283C18.0496 9.59111 16.8114 6.14332 17.1454 5.8068C17.2114 5.74033 17.6716 6.51995 18.1673 7.54023C19.4662 10.2151 20.2253 10.7731 19.5601 8.5642C19.2849 7.65108 19.0614 6.36546 19.0638 5.708L19.0673 4.51222L19.8145 6.04991L20.5618 7.58704L20.6753 5.92237C20.8489 3.37932 20.7805 3.31645 17.8564 3.31645C15.5 3.31645 15.1736 3.22903 14.0091 2.28654C12.2091 0.829089 10.3181 0.342278 8.36892 0.83388ZM34.6676 1.31292C33.3621 1.63326 31.2518 1.99792 29.9791 2.12367C28.0061 2.31767 27.6976 2.43504 27.8867 2.91946C28.5626 4.64875 28.7795 8.10612 28.5703 13.8222L28.3419 20.0568H30.2324C32.31 20.0568 32.3796 19.9549 31.5865 18.0807C29.95 14.2143 30.7067 10.3677 32.8593 11.6121L33.8198 12.1677V8.12946L32.4942 8.60075C30.8661 9.17972 30.7673 9.08756 30.7673 6.9954C30.7673 4.05715 31.8808 3.22424 34.5648 4.15534C36.2541 4.74216 36.3136 4.69845 36.8415 2.5063C37.326 0.493772 37.5359 0.608734 34.6676 1.31292ZM90.513 1.4668C91.3333 4.74635 91.3422 15.3676 90.5278 18.9466C90.3637 19.6669 90.4624 19.7154 92.0918 19.7154C93.7236 19.7154 93.8193 19.6675 93.6469 18.9466C92.3154 13.3958 93.2581 10.8725 94.9291 15.5138L96.2506 19.1842L97.6903 14.9227C99.2847 10.2061 99.2895 10.2103 99.3335 16.128L99.3537 18.8609L101.009 18.9669C102.595 19.0687 102.656 19.0388 102.452 18.2843C101.205 13.6725 100.902 5.56609 101.857 2.37696L102.189 1.2668H98.9244L97.6517 6.47624C96.9521 9.34202 96.2767 11.8025 96.1519 11.9444C96.0271 12.0863 95.4844 9.9007 94.9469 7.0882L93.969 1.97277L92.5911 1.41171C91.8332 1.10274 92.2749 0.76502 92.014 0.660837C91.6418 0.511739 90.3179 0.685979 90.513 1.4668ZM55.3617 1.84823C54.6234 1.99194 54.6049 2.11468 54.514 7.52409L54.4206 13.0533L52.8334 9.80794C51.9597 8.02227 51.0453 5.9086 50.8004 5.10981C50.373 3.71764 50.2993 3.65836 48.9963 3.65895L47.6374 3.66016L47.5827 8.1858C47.553 10.675 47.3068 13.8383 47.0363 15.2155C46.4912 17.9927 46.4217 17.87 48.8726 18.4669L49.7679 18.6849L50.0591 14.8436L50.3505 11.003L52.1279 13.715C53.1045 15.2059 54.1549 17.0891 54.4629 17.8993C54.958 19.2058 55.143 19.3735 56.0893 19.3735H57.1569L56.8657 16.0425C56.7058 14.2101 56.6577 10.2132 56.7575 7.16005C56.8972 2.92005 56.8425 1.61949 56.5286 1.65482C56.3015 1.68056 55.7772 1.76739 55.3617 1.84823ZM67.5194 1.97996C66.8661 2.14583 64.3861 2.38473 62.0077 2.51049C57.2616 2.76077 57.4922 2.61826 57.8941 5.0691L58.0985 6.30918L59.8136 5.85351C62.4982 5.14036 62.7371 5.74872 63.013 13.9928L63.2044 19.7154H66.2384L66.003 18.4538C65.5465 16.0006 65.1571 11.3048 65.1511 8.17444C65.1446 4.61761 65.0496 4.74814 67.9113 4.38887C69.6518 4.17091 69.6535 4.16912 69.6886 2.88951C69.7272 1.49255 69.6172 1.44645 67.5194 1.97996ZM12.7982 2.45181C13.4224 2.92724 13.4022 2.95358 12.3999 2.96376C11.8186 2.96975 10.9405 3.2931 10.4495 3.6829C9.33016 4.56911 9.15598 3.71884 10.2337 2.63324C11.0386 1.82307 11.8934 1.7626 12.7982 2.45181ZM42.509 2.64461C41.2036 2.98352 39.4101 3.27334 38.5238 3.28831C37.4734 3.30686 36.9146 3.46495 36.9175 3.74338C36.9283 4.75294 37.3563 5.6559 37.8901 5.79662C38.5684 5.97506 38.3318 11.2037 37.4205 16.1544C36.7648 19.7208 36.7428 19.5615 37.9614 20.0698C38.8377 20.4352 39.0594 20.4279 39.3072 20.0256C39.6985 19.3909 40.3048 16.5196 40.3048 15.3C40.3048 14.3916 41.1293 13.9071 42.6773 13.9071C42.8163 13.9071 43.0333 14.9599 43.1587 16.246C43.5118 19.855 43.7853 20.5843 44.7471 20.4854C47.0435 20.2507 47.0709 20.2196 46.5304 18.4358C45.2102 14.073 44.356 4.34097 45.294 4.34097C45.8261 4.34097 45.911 4.13978 45.7958 3.1458C45.6394 1.79613 45.7274 1.80931 42.509 2.64461ZM76.7175 2.5039C75.8781 2.77096 74.0733 3.08712 72.7066 3.20568C70.3936 3.40627 70.235 3.47093 70.4121 4.13739C70.5173 4.53138 70.6053 5.02838 70.6082 5.24094C70.6107 5.45411 70.9316 5.7128 71.3222 5.81578C71.9915 5.99123 72.0189 6.15349 71.8043 8.67323C71.5564 11.5833 70.7581 17.4753 70.437 18.7645C70.2688 19.437 70.4341 19.6656 71.4316 20.1448L72.6276 20.7196L73.1459 18.9591C73.4313 17.9914 73.6649 16.6089 73.6649 15.8868C73.6649 14.7909 73.8093 14.5185 74.5352 14.2401C76.457 13.5042 76.6063 13.6671 76.8066 16.7257C77.0545 20.5256 77.1586 20.7328 78.694 20.4992C80.4167 20.2369 80.4953 20.0932 79.937 18.2262C78.5918 13.7233 77.8314 4.34097 78.8118 4.34097C79.3705 4.34097 79.4692 4.18768 79.3057 3.57273C79.1934 3.14999 79.0989 2.61168 79.0964 2.37696C79.0906 1.85541 78.6852 1.87697 76.7175 2.5039ZM109.739 2.5039C108.899 2.77096 107.094 3.08712 105.727 3.20568C103.415 3.40627 103.256 3.47093 103.433 4.13739C103.539 4.53138 103.627 5.04634 103.629 5.28107C103.631 5.51579 103.957 5.708 104.352 5.708C105.314 5.708 104.77 13.4682 103.43 18.8741C103.297 19.4112 103.523 19.698 104.42 20.1291C105.845 20.813 106.168 20.3267 106.671 16.7472C107.039 14.1347 106.944 14.2742 108.51 14.0191L109.739 13.8179V15.5545C109.739 16.5089 109.902 18.055 110.101 18.9896L110.463 20.6896L111.712 20.4992C113.479 20.2303 113.494 20.1824 112.781 17.1861C112.218 14.8179 111.815 11.8042 111.277 5.96428C111.145 4.53078 111.205 4.34157 111.79 4.34157C112.483 4.34157 112.578 3.99727 112.238 2.71886C112.006 1.84583 111.847 1.83266 109.739 2.5039ZM8.42183 3.52362C8.83973 4.15834 8.81655 4.33978 8.22923 5.06072C7.44989 6.01877 6.41258 5.66249 6.22294 4.3733C5.98219 2.73683 7.5147 2.14463 8.42183 3.52362ZM84.0417 2.9955C79.4585 4.33858 79.5228 9.94495 84.1427 11.8575C86.7238 12.9257 87.6114 13.7305 87.6114 15.0024C87.6114 17.7208 85.3757 19.2298 83.5525 17.743L82.8094 17.137L83.5144 16.494C84.8703 15.2587 83.842 12.8821 81.9517 12.8821C78.0591 12.8821 79.8182 19.2447 83.8176 19.6315C90.545 20.283 93.1024 11.324 86.7792 9.25635C83.9526 8.33247 82.8296 6.75109 83.9656 5.29543C85.0511 3.90386 87.4105 4.51342 86.6294 5.98404C85.8632 7.42595 87.9764 8.70916 89.0851 7.47496C91.3458 4.95892 87.8711 1.87278 84.0417 2.9955ZM13.4408 3.97451C13.7481 4.4751 12.2537 8.14571 11.3882 9.01753C10.1719 10.2426 8.41589 10.0953 6.97849 8.64622C5.12143 6.77564 5.48403 5.81578 7.84581 6.3499C9.17381 6.65048 9.30638 6.60079 11.0047 5.16849C12.8754 3.59069 13.1287 3.46614 13.4408 3.97451ZM42.3396 7.5445C42.3396 8.36657 42.4311 9.49957 42.5429 10.063C42.7296 11.003 42.6606 11.0988 41.6952 11.242L40.6436 11.3977V8.72346C40.6436 6.09901 40.6596 6.04991 41.492 6.04991C42.2671 6.04991 42.3396 6.17805 42.3396 7.5445ZM75.9375 8.57924C76.0047 11.0965 76.0029 11.1019 75.0607 11.2414L74.1167 11.3809L74.1452 8.71576C74.1732 6.10739 74.1917 6.05051 75.0214 6.0535C75.843 6.0565 75.8716 6.13494 75.9375 8.57924ZM108.966 8.61334C109.024 10.6073 108.936 11.1743 108.57 11.1743C108.252 11.1854 107.938 11.2454 107.639 11.3522C107.25 11.5018 107.101 8.73312 107.356 6.13494C107.361 6.08823 107.708 6.05051 108.128 6.05111C108.845 6.0523 108.895 6.20798 108.966 8.61334Z" fill="white"/>
</g>
<defs>
<clipPath id="clip0_4416_8247">
<rect width="112.444" height="22" fill="white" transform="translate(0.777771 0.000976562)"/>
</clipPath>
</defs>
</svg>

<svg width="114" height="22" fill="none" xmlns="http://www.w3.org/2000/svg"><g clip-path="url(#a)"><path fill-rule="evenodd" clip-rule="evenodd" d="M8.369.834c-2.022.51-3.878 3.127-3.894 5.49-.006 1.004-.173 1.205-1.488 1.791C0 9.445.04 10.914 3.113 12.775c2.428 1.472 2.502 1.45 2.267-.661-.197-1.776-.194-1.785.328-.807.845 1.582.505 5.557-.549 6.417-1.28 1.044-2.808.726-3.259-.68-.323-1.007-.414-1.071-.818-.581C-.185 18 3.318 21.103 6.435 21.2c2.052.066 3.303-.723 4.159-2.623.624-1.385.643-1.396.638-.4-.003.564-.223 1.41-.49 1.879-.78 1.376-.637 1.474 1.782 1.227 2.898-.297 5.496-1.476 6.56-2.977 1.283-1.814 1.194-5.781-.17-7.579-.864-1.137-2.103-4.585-1.769-4.921.066-.067.527.713 1.022 1.733 1.3 2.675 2.058 3.233 1.393 1.024-.275-.913-.499-2.199-.496-2.856l.003-1.196.747 1.538.748 1.537.113-1.665c.174-2.543.105-2.606-2.819-2.606-2.356 0-2.682-.087-3.847-1.03C12.21.83 10.32.343 8.37.835Zm26.299.479c-1.306.32-3.416.685-4.689.81-1.973.195-2.281.312-2.092.796.676 1.73.892 5.187.683 10.903l-.228 6.235h1.89c2.078 0 2.148-.102 1.355-1.976-1.637-3.867-.88-7.713 1.272-6.469l.96.556V8.129l-1.325.472c-1.628.579-1.727.487-1.727-1.606 0-2.938 1.114-3.77 3.798-2.84 1.69.587 1.749.543 2.277-1.649.484-2.012.694-1.897-2.174-1.193Zm55.845.154c.82 3.28.83 13.9.015 17.48-.164.72-.066.768 1.564.768 1.632 0 1.727-.047 1.555-.768-1.332-5.551-.389-8.074 1.282-3.433l1.322 3.67 1.44-4.261c1.594-4.717 1.599-4.713 1.642 1.205l.02 2.733 1.656.106c1.586.102 1.647.072 1.443-.683-1.247-4.611-1.55-12.718-.595-15.907l.332-1.11h-3.265l-1.272 5.21c-.7 2.865-1.375 5.325-1.5 5.467-.125.142-.668-2.043-1.205-4.856l-.978-5.115-1.378-.561c-.758-.31-.316-.647-.577-.751-.372-.15-1.696.025-1.501.806Zm-35.151.381c-.739.144-.757.267-.848 5.676l-.093 5.53-1.588-3.246c-.873-1.786-1.788-3.9-2.033-4.698-.427-1.392-.5-1.452-1.804-1.451l-1.359.001-.054 4.526c-.03 2.489-.276 5.652-.547 7.03-.545 2.777-.614 2.654 1.837 3.25l.895.219.291-3.841.291-3.841 1.778 2.712c.977 1.49 2.027 3.374 2.335 4.184.495 1.307.68 1.474 1.626 1.474h1.068l-.291-3.33c-.16-1.833-.208-5.83-.108-8.883.14-4.24.084-5.54-.23-5.505-.227.026-.75.112-1.166.193Zm12.157.132c-.653.166-3.133.405-5.511.53-4.746.25-4.516.108-4.114 2.56l.205 1.24 1.715-.456c2.684-.714 2.923-.105 3.199 8.139l.191 5.722h3.034l-.235-1.261c-.457-2.453-.846-7.15-.852-10.28-.006-3.556-.101-3.426 2.76-3.785 1.74-.218 1.742-.22 1.778-1.5.038-1.396-.072-1.443-2.17-.909Zm-54.72.472c.623.475.603.502-.4.512-.58.006-1.458.33-1.95.719-1.119.886-1.293.036-.215-1.05.805-.81 1.66-.87 2.564-.181Zm29.71.193c-1.305.339-3.099.628-3.985.643-1.05.019-1.61.177-1.607.455.011 1.01.44 1.913.973 2.054.678.178.442 5.407-.47 10.357-.655 3.567-.677 3.407.541 3.916.877.365 1.098.358 1.346-.044.392-.635.998-3.506.998-4.726 0-.908.824-1.393 2.372-1.393.14 0 .356 1.053.482 2.339.353 3.609.626 4.338 1.588 4.24 2.297-.235 2.324-.266 1.783-2.05-1.32-4.363-2.174-14.095-1.236-14.095.532 0 .617-.201.502-1.195-.157-1.35-.069-1.337-3.287-.501Zm34.209-.141c-.84.267-2.645.583-4.011.702-2.313.2-2.472.265-2.295.931.105.394.193.891.196 1.104.003.213.324.472.714.575.67.175.697.337.482 2.857-.248 2.91-1.046 8.802-1.367 10.092-.168.672-.003.9.995 1.38l1.196.575.518-1.76c.285-.969.519-2.351.519-3.073 0-1.096.144-1.369.87-1.647 1.922-.736 2.071-.573 2.272 2.486.248 3.8.352 4.007 1.887 3.773 1.723-.262 1.801-.406 1.243-2.273-1.345-4.503-2.106-13.885-1.125-13.885.559 0 .657-.153.494-.768-.113-.423-.207-.961-.21-1.196-.005-.522-.41-.5-2.379.127Zm33.021 0c-.84.267-2.645.583-4.012.702-2.312.2-2.471.265-2.294.931.106.394.194.91.196 1.144.002.235.328.427.723.427.962 0 .418 7.76-.922 13.166-.133.537.093.824.99 1.255 1.425.684 1.748.198 2.251-3.382.368-2.612.273-2.473 1.839-2.728l1.229-.201v1.737c0 .954.163 2.5.362 3.435l.362 1.7 1.249-.19c1.767-.27 1.782-.318 1.069-3.314-.563-2.368-.966-5.382-1.504-11.222-.132-1.433-.072-1.622.513-1.622.693 0 .788-.345.448-1.623-.232-.873-.391-.886-2.499-.215ZM8.422 3.524c.418.634.395.816-.193 1.537-.78.958-1.816.601-2.006-.688-.24-1.636 1.292-2.228 2.199-.85Zm75.62-.529c-4.584 1.344-4.52 6.95.1 8.863 2.582 1.068 3.47 1.872 3.47 3.144 0 2.719-2.236 4.228-4.06 2.741l-.743-.606.705-.643c1.356-1.235.328-3.612-1.562-3.612-3.893 0-2.134 6.363 1.866 6.75 6.727.651 9.284-8.308 2.961-10.376-2.826-.924-3.95-2.505-2.813-3.96 1.085-1.392 3.445-.783 2.663.688-.766 1.442 1.347 2.725 2.456 1.491 2.26-2.516-1.214-5.602-5.043-4.48Zm-70.601.98c.307.5-1.187 4.17-2.053 5.043-1.216 1.225-2.972 1.077-4.41-.372-1.857-1.87-1.494-2.83.868-2.296 1.328.3 1.46.25 3.159-1.182 1.87-1.577 2.124-1.702 2.436-1.193Zm28.899 3.57c0 .822.091 1.955.203 2.518.187.94.118 1.036-.848 1.179l-1.051.156V8.723c0-2.624.016-2.673.848-2.673.775 0 .848.128.848 1.495Zm33.597 1.034c.068 2.518.066 2.523-.876 2.662l-.944.14.028-2.665c.028-2.609.047-2.665.876-2.662.822.002.85.08.916 2.525Zm33.029.034c.058 1.994-.03 2.561-.396 2.561a3.088 3.088 0 0 0-.931.178c-.389.15-.538-2.619-.283-5.217.005-.047.352-.084.772-.084.717.001.767.157.838 2.562Z" fill="#fff"/></g><defs><clipPath id="a"><path fill="#fff" transform="translate(.778 .001)" d="M0 0h112.444v22H0z"/></clipPath></defs></svg>
